X:1
T:Jesus Loves Me
T:William B Bradbury
T:Anna B Warner
%%score { 1 | 2 }
L:1/8
M:4/4
K:C
V:1 treble nm="Electric Piano" snm="El. Pno."
V:2 bass 
V:1
 z8 | z8 | G2 E2 E2 D2 | E2 G2 G4 | A2 A2 c2 A2 | A2 G2 G4 | G2 E2 E2 D2 | E2 G2 G4 | A2 A2 G2 C2 | %9
w: ||Je- sus loves me|this I know,|For the bi- ble|tells me so,|Lit- tle ones to|Him be- long,|They are weak but|
 E2 D2 C4 | G4 E2 G2 | A2 c4 A2 | (G4 E2) C2 | E2 D4 (EE/)F/ | G4 E2 G2 | A2 c4 A2 | G2 C2 E2 D2 | %17
w: He is strong.|Yes, Je- sus|loves me, Yes,|Je- * sus|loves me, Yes, _ _|_ Je- sus|loves me, The|bi- ble tells me|
 !fermata!C8 |] %18
w: so.|
V:2
 C,G,EG, DG,CG, | C,G,EG, DG,CG, | C,G,EG, DG,CG, | C,G,EG, DG,CG, | F,CAC GCFC | C,G,EG, DG,CG, | %6
 C,G,EG, DG,CG, | C,G,EG, DG,CG, | F,CAC C,G,CE | G,,D,B,D, C,G,CE | C,G,EG, DG,CG, | F,CGC GCFC | %12
 C,G,EG, DG,CG, | G,,D,B,D, A,D,G,D, | C,G,EG, DG,CG, | F,CGC GCFC | C,G,CE F,,C,G,B, | %17
 C,E,G,C- !fermata!C4 |] %18

